X: 1
T: Regent, The
M: 6/8
L: 1/8
R: jig
K: Gmaj
|:ged B2A|BEF G3|BcB ABA|GBd e2 d|
ged B2A|BEF G3|BdB AGA|BGF G3:|
|:def gfg|efa efa|bag e2d|efg efg|
def gfg|efg edB|dcB AGA|BGF G3:|
